X: 012
T: Tiviot Banks
C: by John Pringle
B: John Pringle "Collection of Reels Strathspeys & Jigs", 1801 p.1#2
Z: 2011 John Chambers <jc:trillian.mit.edu>
R: jig
M: 6/8
L: 1/8
K: F
V: 1
|:\
F>GF FAc | F>GF FAc | D>ED DEF | GBA GFE |\
F>GF FAc | ~ded def | cAd cEG | FGF F3 :|
|: ABc dBd | cdc cAF | BGF EcB | Adf ecA |\
~def .e(Ad) | .c(GB) .A(FA) | GEG AFE | FDD D3 :|
V: 2 clef=bass middle=d
|:\
[f3F3] [f3F3] | [f3F3] [f3F3] | [b3B3] [b3B3] | g3 c3 |\
[f3F3] [f3F3] | [b3B3] [b3B3] | c'3 c3 | f3 F3 :|
|:\
[f3F3] [b3B3] | [a3A3] [f3F3] | [c3C3] [c3C3] | [d3D3] [a3A3] |\
[b3B3] [a3A3] | [g3G3] [f3F3] | c3 A3 | d3 D3 :|

%%sep 2 1 500

